X:0607
T:Mr. Lumsdain of Blanairn's Strathspey.
M:C
L:1/8
Q:1/4=120
N:bar 2 is printed |dG (cBAG) FAAB/c/|
I: :: ||
Z:Jack Campin * www.campin.me.uk * 2009
K:G
B/c/| d<Ge>G       d>Gc>e|dG      (c/B/A/G/) FAAB/c/|d<Ge>G        d>Gc>e|F(G/A/) A(B/c/) BGG  :|
b/a/|(g/a/b/a/) gd e<gg>a|g/a/b/a/ gd        e<aa>b |(g/a/b/a/) gd e<gd>B|c(d/e/) A(B/c/) B(GG)
b/a/|(g/a/b/a/) gd e<gg>a|g/a/b/a/ ge        f<aa>c'|b<c'a<b       g<ae<g|B(c/d/) A(B/c/) B(GG)|]

